X: 36132
T: Scordatura
R: jig
M: 6/8
K: Amajor
ABA cAA|dAA cAA|ABA cAA|dAA cAA|efe ecB|AFE D2 F|
ABA cAA|dAA cAA|ABA cAA|dAA cAA|efe agf|ecB A2:|
G2 E C2 E|F2 D B2, D|G2 E C2 D|E3 F3|
GEE CEE|FDD B,DD|GEE CEE|F3 c2:|
ABA cAA|dAA cAA|ABA cAA|dAA cAA|efe ecB|AFE D2 F|
ABA cAA|dAA cAA|ABA cAA|dAA cAA|efe agf|ecB A2:|

